file/ng.svg

<?xml version="1.0" encoding="UTF-8" standalone="no"?>
<!DOCTYPE svg PUBLIC "-//W3C//DTD SVG 1.1//EN" "http://www.w3.org/Graphics/SVG/1.1/DTD/svg11.dtd">
<svg width="100%" height="100%" viewBox="0 0 560 400" version="1.1" xmlns="http://www.w3.org/2000/svg" xmlns:xlink="http://www.w3.org/1999/xlink" xml:space="preserve" xmlns:serif="http://www.serif.com/" style="fill-rule:evenodd;clip-rule:evenodd;stroke-linejoin:round;stroke-miterlimit:1.41421;">
    <g transform="matrix(1.38889,0,0,1.38889,-31.25,-25.0694)">
        <path d="M94.5,123.935L147.69,123.935L147.69,200.165L94.5,200.165L94.5,123.935ZM102.06,192.605L139.86,192.605L139.86,131.765L102.06,131.765L102.06,192.605Z" style="fill:rgb(255,215,0);fill-rule:nonzero;"/>
        <path d="M182.79,158.315L179.46,158.315C175.05,152.195 170.82,146.165 166.59,139.235L166.59,158.315L162.9,158.315L162.9,131.855L166.23,131.855C170.64,137.975 174.87,143.915 179.01,150.755L179.1,150.755L179.1,131.855L182.79,131.855L182.79,158.315L182.79,158.315ZM191.52,147.605L197.73,147.605C196.74,144.095 195.84,140.855 194.67,136.805L194.58,136.805C193.68,140.945 192.6,144.275 191.52,147.605ZM193.23,131.675L197.01,131.675L205.47,158.135L200.34,158.135L198.27,150.845L190.26,150.845L187.92,158.135L183.96,158.135L193.23,131.675ZM209.79,158.315L214.29,158.315L214.29,135.365L221.31,135.365L221.31,131.765L202.77,131.765L202.77,135.365L209.79,135.365L209.79,158.315L209.79,158.315ZM222.66,131.675L222.66,158.135L227.16,158.135L227.16,131.675L222.66,131.675ZM241.29,154.805C246.06,154.805 247.77,149.585 247.77,144.545C247.77,139.595 245.88,135.005 241.29,135.005C236.79,135.005 234.81,139.685 234.81,144.545C234.81,149.675 236.52,154.805 241.29,154.805ZM241.29,158.675C234.27,158.675 230.13,152.465 230.13,144.635C230.13,137.165 234.99,131.315 241.29,131.315C247.77,131.315 252.45,137.255 252.45,144.635C252.45,152.375 248.22,158.675 241.29,158.675ZM275.13,158.315L275.13,131.855L271.44,131.855L271.44,150.755L271.35,150.755C267.03,143.915 262.8,137.975 258.57,131.855L255.24,131.855L255.24,158.315L258.93,158.315L258.93,139.235C263.25,146.165 267.48,152.105 271.8,158.315L275.13,158.315ZM283.77,147.605L289.98,147.605C288.99,144.095 288.09,140.855 286.92,136.805L286.83,136.805C285.84,140.945 284.76,144.275 283.77,147.605ZM285.39,131.675L289.17,131.675L297.63,158.135L292.5,158.135L290.43,150.845L282.51,150.845L280.17,158.135L276.21,158.135L285.39,131.675ZM299.07,131.675L299.07,158.135L312.57,158.135L312.57,154.535L303.57,154.535L303.57,131.585L299.07,131.585L299.07,131.675ZM180.18,180.275L175.68,180.275L175.68,188.465C174.69,188.915 173.7,189.095 172.53,189.095C168.66,189.095 164.79,185.405 164.79,179.195C164.79,173.165 168.12,169.385 172.98,169.385C174.69,169.385 176.67,170.015 177.84,170.825L179.37,167.675C177.84,166.595 175.41,165.605 172.89,165.605C164.88,165.605 160.02,171.995 160.02,179.195C160.02,187.025 164.97,192.965 172.71,192.965C175.23,192.965 177.84,192.245 180.27,191.255L180.18,180.275ZM196.38,169.565L196.38,165.965L184.32,165.965L184.32,192.425L197.82,192.425L197.82,188.825L188.91,188.825L188.91,180.275L196.38,180.275L196.38,176.675L188.91,176.675L188.91,169.385L196.38,169.385L196.38,169.565ZM210.33,189.095C215.1,189.095 216.81,183.875 216.81,178.835C216.81,173.885 214.92,169.295 210.33,169.295C205.83,169.295 203.85,173.975 203.85,178.835C203.85,183.875 205.65,189.095 210.33,189.095ZM210.33,192.875C203.31,192.875 199.17,186.665 199.17,178.835C199.17,171.365 203.94,165.515 210.33,165.515C216.72,165.515 221.49,171.455 221.49,178.835C221.58,186.755 217.26,192.875 210.33,192.875ZM243.45,180.275L238.95,180.275L238.95,188.465C237.96,188.915 236.97,189.095 235.8,189.095C231.93,189.095 228.06,185.405 228.06,179.195C228.06,173.165 231.39,169.385 236.25,169.385C237.96,169.385 239.94,170.015 241.11,170.825L242.64,167.675C241.11,166.595 238.68,165.605 236.16,165.605C228.15,165.605 223.29,171.995 223.29,179.195C223.29,187.025 228.24,192.965 235.98,192.965C238.59,192.965 241.11,192.245 243.54,191.255L243.45,180.275ZM252.09,169.565L252.09,179.195C252.45,179.195 253.53,179.105 253.98,179.105C256.14,179.015 258.39,177.395 258.39,173.795C258.39,171.005 256.86,169.475 254.16,169.475L252.09,169.475L252.09,169.565ZM263.7,192.425L258.48,192.425L254.16,182.525L252.09,182.525L252.09,192.425L247.5,192.425L247.5,165.965L254.61,165.965C259.74,165.965 262.89,168.485 262.89,173.705C262.89,176.855 261.18,180.095 258.3,181.625L263.7,192.425ZM271.08,181.895L277.29,181.895C276.3,178.385 275.4,175.145 274.23,171.095L274.14,171.095C273.24,175.325 272.16,178.565 271.08,181.895ZM272.79,165.965L276.57,165.965L285.03,192.425L279.9,192.425L277.83,185.135L269.82,185.135L267.48,192.425L263.61,192.425L272.79,165.965ZM293.58,165.965C298.71,165.965 301.86,168.485 301.86,173.705C301.86,178.205 298.53,182.525 293.22,182.525L291.15,182.525L291.15,192.425L286.56,192.425L286.56,165.965L293.58,165.965L293.58,165.965ZM292.95,179.195C295.11,179.105 297.36,177.485 297.36,173.885C297.36,171.095 295.83,169.565 293.13,169.565L291.06,169.565L291.06,179.195C291.42,179.285 292.5,179.195 292.95,179.195ZM322.83,192.425L322.83,166.055L318.33,166.055L318.33,176.135L308.97,176.135L308.97,165.965L304.47,165.965L304.47,192.515L308.97,192.515L308.97,179.825L318.33,179.825L318.33,192.515L322.83,192.425ZM327.24,165.965L327.24,192.425L331.74,192.425L331.74,165.965L327.24,165.965ZM352.26,170.825L353.7,167.585C352.08,166.595 350.01,165.515 347.58,165.515C339.66,165.515 334.8,171.905 334.8,179.105C334.8,186.935 339.75,192.875 347.49,192.875C349.74,192.875 352.08,191.975 353.52,191.075L352.26,187.745C351.09,188.555 349.47,189.095 347.76,189.095C343.35,189.095 339.57,185.405 339.57,179.195C339.57,173.165 342.99,169.385 347.58,169.385C349.29,169.295 351.09,170.015 352.26,170.825Z" style="fill-rule:nonzero;"/>
    </g>
</svg>

<svg clip-rule="evenodd" fill-rule="evenodd" stroke-linejoin="round" stroke-miterlimit="1.41421" viewBox="0 0 560 400" xmlns="http://www.w3.org/2000/svg"><g fill-rule="nonzero" transform="matrix(1.38889 0 0 1.38889 -31.25 -25.0694)"><path d="m94.5 123.935h53.19v76.23h-53.19zm7.56 68.67h37.8v-60.84h-37.8z" fill="#ffd700"/><path d="m182.79 158.315h-3.33c-4.41-6.12-8.64-12.15-12.87-19.08v19.08h-3.69v-26.46h3.33c4.41 6.12 8.64 12.06 12.78 18.9h.09v-18.9h3.69zm8.73-10.71h6.21c-.99-3.51-1.89-6.75-3.06-10.8h-.09c-.9 4.14-1.98 7.47-3.06 10.8zm1.71-15.93h3.78l8.46 26.46h-5.13l-2.07-7.29h-8.01l-2.34 7.29h-3.96zm16.56 26.64h4.5v-22.95h7.02v-3.6h-18.54v3.6h7.02zm12.87-26.64v26.46h4.5v-26.46zm18.63 23.13c4.77 0 6.48-5.22 6.48-10.26 0-4.95-1.89-9.54-6.48-9.54-4.5 0-6.48 4.68-6.48 9.54 0 5.13 1.71 10.26 6.48 10.26zm0 3.87c-7.02 0-11.16-6.21-11.16-14.04 0-7.47 4.86-13.32 11.16-13.32 6.48 0 11.16 5.94 11.16 13.32 0 7.74-4.23 14.04-11.16 14.04zm33.84-.36v-26.46h-3.69v18.9h-.09c-4.32-6.84-8.55-12.78-12.78-18.9h-3.33v26.46h3.69v-19.08c4.32 6.93 8.55 12.87 12.87 19.08zm8.64-10.71h6.21c-.99-3.51-1.89-6.75-3.06-10.8h-.09c-.99 4.14-2.07 7.47-3.06 10.8zm1.62-15.93h3.78l8.46 26.46h-5.13l-2.07-7.29h-7.92l-2.34 7.29h-3.96zm13.68 0v26.46h13.5v-3.6h-9v-22.95h-4.5zm-118.89 48.6h-4.5v8.19c-.99.45-1.98.63-3.15.63-3.87 0-7.74-3.69-7.74-9.9 0-6.03 3.33-9.81 8.19-9.81 1.71 0 3.69.63 4.86 1.44l1.53-3.15c-1.53-1.08-3.96-2.07-6.48-2.07-8.01 0-12.87 6.39-12.87 13.59 0 7.83 4.95 13.77 12.69 13.77 2.52 0 5.13-.72 7.56-1.71zm16.2-10.71v-3.6h-12.06v26.46h13.5v-3.6h-8.91v-8.55h7.47v-3.6h-7.47v-7.29h7.47zm13.95 19.53c4.77 0 6.48-5.22 6.48-10.26 0-4.95-1.89-9.54-6.48-9.54-4.5 0-6.48 4.68-6.48 9.54 0 5.04 1.8 10.26 6.48 10.26zm0 3.78c-7.02 0-11.16-6.21-11.16-14.04 0-7.47 4.77-13.32 11.16-13.32s11.16 5.94 11.16 13.32c.09 7.92-4.23 14.04-11.16 14.04zm33.12-12.6h-4.5v8.19c-.99.45-1.98.63-3.15.63-3.87 0-7.74-3.69-7.74-9.9 0-6.03 3.33-9.81 8.19-9.81 1.71 0 3.69.63 4.86 1.44l1.53-3.15c-1.53-1.08-3.96-2.07-6.48-2.07-8.01 0-12.87 6.39-12.87 13.59 0 7.83 4.95 13.77 12.69 13.77 2.61 0 5.13-.72 7.56-1.71zm8.64-10.71v9.63c.36 0 1.44-.09 1.89-.09 2.16-.09 4.41-1.71 4.41-5.31 0-2.79-1.53-4.32-4.23-4.32h-2.07zm11.61 22.86h-5.22l-4.32-9.9h-2.07v9.9h-4.59v-26.46h7.11c5.13 0 8.28 2.52 8.28 7.74 0 3.15-1.71 6.39-4.59 7.92zm7.38-10.53h6.21c-.99-3.51-1.89-6.75-3.06-10.8h-.09c-.9 4.23-1.98 7.47-3.06 10.8zm1.71-15.93h3.78l8.46 26.46h-5.13l-2.07-7.29h-8.01l-2.34 7.29h-3.87zm20.79 0c5.13 0 8.28 2.52 8.28 7.74 0 4.5-3.33 8.82-8.64 8.82h-2.07v9.9h-4.59v-26.46zm-.63 13.23c2.16-.09 4.41-1.71 4.41-5.31 0-2.79-1.53-4.32-4.23-4.32h-2.07v9.63c.36.09 1.44 0 1.89 0zm29.88 13.23v-26.37h-4.5v10.08h-9.36v-10.17h-4.5v26.55h4.5v-12.69h9.36v12.69zm4.41-26.46v26.46h4.5v-26.46zm25.02 4.86 1.44-3.24c-1.62-.99-3.69-2.07-6.12-2.07-7.92 0-12.78 6.39-12.78 13.59 0 7.83 4.95 13.77 12.69 13.77 2.25 0 4.59-.9 6.03-1.8l-1.26-3.33c-1.17.81-2.79 1.35-4.5 1.35-4.41 0-8.19-3.69-8.19-9.9 0-6.03 3.42-9.81 8.01-9.81 1.71-.09 3.51.63 4.68 1.44z"/></g></svg>
